imgs/01-02-icon.svg

<?xml version="1.0" encoding="UTF-8" standalone="no"?>
<svg width="640px" height="133px" viewBox="0 0 640 133" version="1.1" xmlns="http://www.w3.org/2000/svg" xmlns:xlink="http://www.w3.org/1999/xlink" xmlns:sketch="http://www.bohemiancoding.com/sketch/ns">
    <!-- Generator: Sketch 3.3 (11970) - http://www.bohemiancoding.com/sketch -->
    <title>Rectangle 8</title>
    <desc>Created with Sketch.</desc>
    <defs></defs>
    <g id="Welcome" stroke="none" stroke-width="1" fill="none" fill-rule="evenodd" sketch:type="MSPage">
        <g id="01-02" sketch:type="MSArtboardGroup" transform="translate(0.000000, -619.000000)">
            <g id="01-02-icon" sketch:type="MSLayerGroup" transform="translate(0.000000, 619.000000)">
                <path d="M373.454667,66.3059836 C372.5914,66.3059836 371.873033,66.918864 371.711267,67.7329772 L357.6874,67.7329772 C357.6874,57.109718 353.4186,47.4849717 346.505567,40.4609499 L356.982067,30.0052572 L356.488333,29.5132696 C356.488333,29.5132696 352.359833,33.63357 346.011833,39.9689623 C338.9746,33.0688937 329.3307,28.8078069 318.6863,28.8078069 L318.6863,15.2563416 C319.502033,15.0948962 320.115367,14.3779563 320.115367,13.5171693 C320.115367,12.5370199 319.320333,11.7428004 318.338233,11.7428004 C317.356133,11.7428004 316.560333,12.5370199 316.560333,13.5171693 C316.560333,14.3779563 317.1752,15.0948962 317.990167,15.2563416 L317.990167,28.8254052 C307.4462,29.01057 297.9219,33.362709 291.008867,40.3132771 C284.3197,33.6381609 279.925167,29.2523555 279.925167,29.2523555 L279.432967,29.743578 C279.432967,29.743578 283.832867,34.1347393 290.528167,40.8167418 C283.816767,47.8078625 279.6852,57.2864662 279.6852,67.7329772 L264.519767,67.7329772 C264.358,66.918864 263.6404,66.3059836 262.777133,66.3059836 C261.7958,66.3059836 261,67.0994379 261,68.0795874 C261,69.0597368 261.7958,69.8539563 262.777133,69.8539563 C263.639633,69.8539563 264.358,69.241076 264.519767,68.428493 L279.702833,68.428493 C279.8853,78.7747701 284.106567,88.1347766 290.8678,95.0042393 C283.7378,102.120078 278.9975,106.849433 278.9975,106.849433 L279.492,107.342951 C279.492,107.342951 284.231533,102.612066 291.361533,95.4969921 C298.2439,102.244797 307.622533,106.45768 317.990167,106.639019 L317.990167,122.234949 C317.1752,122.396394 316.560333,123.112569 316.560333,123.974121 C316.560333,124.954271 317.356133,125.74849 318.338233,125.74849 C319.320333,125.74849 320.115367,124.954271 320.115367,123.974121 C320.115367,123.112569 319.502033,122.396394 318.6863,122.234949 L318.6863,106.656617 C329.1536,106.656617 338.6503,102.534021 345.655333,95.8351857 C352.3537,102.519484 356.752067,106.90835 356.752067,106.90835 L357.242733,106.416362 C357.242733,106.416362 352.8505,102.032087 346.160567,95.3554404 C353.1242,88.4553719 357.485,78.9515184 357.669767,68.428493 L371.711267,68.428493 C371.8738,69.241076 372.5914,69.8539563 373.454667,69.8539563 C374.436767,69.8539563 375.2318,69.0597368 375.2318,68.0795874 C375.2318,67.0994379 374.436767,66.3059836 373.454667,66.3059836 L373.454667,66.3059836 Z M356.154833,67.7329772 L337.4612,67.7329772 C337.1967,62.8192224 335.0715,58.3997507 331.777133,55.1608962 L345.409233,41.5551058 C352.049333,48.3059712 356.154833,57.5481455 356.154833,67.7329772 L356.154833,67.7329772 Z M318.338233,86.3596425 C308.622267,86.3596425 300.719467,78.4710079 300.719467,68.7758684 C300.719467,59.0791986 308.622267,51.1913292 318.338233,51.1913292 C328.053433,51.1913292 335.957767,59.0791986 335.957767,68.7758684 C335.957767,78.4710079 328.053433,86.3596425 318.338233,86.3596425 L318.338233,86.3596425 Z M344.9155,41.0631182 C340.9848,44.9867766 336.303533,49.6587458 331.2719,54.6796207 C327.9438,51.636643 323.5347,49.7559191 318.6863,49.6694578 L318.6863,30.33886 C328.8914,30.33886 338.151967,34.4362061 344.9155,41.0631182 L344.9155,41.0631182 Z M317.990167,30.3564583 L317.990167,49.6694578 C313.141,49.7559191 308.7319,51.636643 305.4038,54.6796207 C300.531633,49.8171306 295.977633,45.2729404 292.1052,41.4081981 C298.744533,34.7307865 307.8855,30.5423883 317.990167,30.3564583 L317.990167,30.3564583 Z M291.6245,41.9108977 L304.899333,55.1593659 C301.604967,58.3989856 299.479,62.8184573 299.2145,67.7329772 L281.217767,67.7329772 C281.217767,57.7241286 285.186033,48.628862 291.6245,41.9108977 L291.6245,41.9108977 Z M281.2354,68.428493 L299.1938,68.428493 C299.1915,68.5440298 299.185367,68.6588014 299.185367,68.7758684 C299.185367,73.7523649 301.092067,78.2827825 304.2147,81.6838476 L291.964133,93.9100834 C285.475833,87.3137771 281.417867,78.3371077 281.2354,68.428493 L281.2354,68.428493 Z M292.457867,94.4028361 C296.080367,90.7867656 300.251033,86.6243823 304.696933,82.1880775 C308.094033,85.62893 312.7891,87.7874012 317.990167,87.8799836 L317.990167,105.108731 C308.061833,104.926627 299.066533,100.87825 292.457867,94.4028361 L292.457867,94.4028361 Z M318.6863,105.126329 L318.6863,87.8799836 C323.887367,87.7874012 328.581667,85.62893 331.979533,82.1873123 C336.579533,86.7781763 340.877467,91.0675735 344.559,94.7410298 C337.827667,101.167474 328.7143,105.126329 318.6863,105.126329 L318.6863,105.126329 Z M345.064233,94.2612845 C341.377333,90.5817071 337.0702,86.2838932 332.461,81.6838476 C335.583633,78.2820174 337.4911,73.7515998 337.4911,68.7758684 C337.4911,68.6588014 337.4842,68.5440298 337.4819,68.428493 L356.1372,68.428493 C355.951667,78.5123257 351.754933,87.6343724 345.064233,94.2612845 L345.064233,94.2612845 Z" fill="#FFFFFF" sketch:type="MSShapeGroup"></path>
                <rect id="Rectangle-8" sketch:type="MSShapeGroup" x="0" y="0" width="640" height="133"></rect>
            </g>
        </g>
    </g>
</svg>

<svg width="640" height="133" viewBox="0 0 640 133" xmlns="http://www.w3.org/2000/svg" xmlns:sketch="http://www.bohemiancoding.com/sketch/ns"><title>Rectangle 8</title><desc>Created with Sketch.</desc><g sketch:type="MSLayerGroup" fill="none"><path d="M373.455 66.306c-.863 0-1.582.613-1.743 1.427h-14.024c0-10.623-4.269-20.248-11.182-27.272l10.476-10.456-.494-.492s-4.129 4.12-10.476 10.456c-7.037-6.9-16.681-11.161-27.326-11.161v-13.551c.816-.161 1.429-.878 1.429-1.739 0-.98-.795-1.774-1.777-1.774-.982 0-1.778.794-1.778 1.774 0 .861.615 1.578 1.43 1.739v13.569c-10.544.185-20.068 4.537-26.981 11.488l-11.084-11.061-.492.491 11.095 11.073c-6.711 6.991-10.843 16.47-10.843 26.916h-15.165c-.162-.814-.879-1.427-1.743-1.427-.981 0-1.777.793-1.777 1.774 0 .98.796 1.774 1.777 1.774.863 0 1.581-.613 1.743-1.425h15.183c.182 10.346 4.404 19.706 11.165 26.576-7.13 7.116-11.87 11.845-11.87 11.845l.495.494s4.74-4.731 11.87-11.846c6.882 6.748 16.261 10.961 26.629 11.142v15.596c-.815.161-1.43.878-1.43 1.739 0 .98.796 1.774 1.778 1.774s1.777-.794 1.777-1.774c0-.862-.613-1.578-1.429-1.739v-15.578c10.467 0 19.964-4.123 26.969-10.821 6.698 6.684 11.097 11.073 11.097 11.073l.491-.492-11.082-11.061c6.964-6.9 11.324-16.404 11.509-26.927h14.042c.163.813.88 1.425 1.743 1.425.982 0 1.777-.794 1.777-1.774s-.795-1.774-1.777-1.774zm-17.3 1.427h-18.694c-.264-4.914-2.39-9.333-5.684-12.572l13.632-13.606c6.64 6.751 10.746 15.993 10.746 26.178zm-37.817 18.627c-9.716 0-17.619-7.889-17.619-17.584 0-9.697 7.903-17.585 17.619-17.585 9.715 0 17.62 7.888 17.62 17.585 0 9.695-7.904 17.584-17.62 17.584zm26.577-45.297c-3.931 3.924-8.612 8.596-13.644 13.617-3.328-3.043-7.737-4.924-12.586-5.01v-19.331c10.205 0 19.466 4.097 26.229 10.724zm-26.925-10.707v19.313c-4.849.086-9.258 1.967-12.586 5.01-4.872-4.862-9.426-9.407-13.299-13.271 6.639-6.677 15.78-10.866 25.885-11.052zm-26.366 11.554l13.275 13.248c-3.294 3.24-5.42 7.659-5.685 12.574h-17.997c0-10.009 3.968-19.104 10.407-25.822zm-10.389 26.518h17.958l-.008.347c0 4.976 1.907 9.507 5.029 12.908l-12.251 12.226c-6.488-6.596-10.546-15.573-10.729-25.482zm11.222 25.974l12.239-12.215c3.397 3.441 8.092 5.599 13.293 5.692v17.229c-9.928-.182-18.924-4.23-25.532-10.706zm26.228 10.723v-17.246c5.201-.093 9.895-2.251 13.293-5.693l12.579 12.554c-6.731 6.426-15.845 10.385-25.873 10.385zm26.378-10.865l-12.603-12.577c3.123-3.402 5.03-7.932 5.03-12.908l-.009-.347h18.655c-.186 10.084-4.382 19.206-11.073 25.833z" fill="#fff" sketch:type="MSShapeGroup"/><path sketch:type="MSShapeGroup" d="M0 0h640v133h-640z"/></g></svg>
